assets/phone_icon.svg

<svg width="50" height="50" viewBox="0 0 50 50" fill="none" xmlns="http://www.w3.org/2000/svg">
<circle cx="25" cy="25" r="24" stroke="#66FCF1" stroke-width="2"/>
<path d="M36.1696 30.4429V33.4223C36.1708 33.6989 36.1097 33.9727 35.9904 34.2261C35.871 34.4795 35.696 34.707 35.4764 34.894C35.2569 35.081 34.9977 35.2234 34.7155 35.312C34.4332 35.4006 34.1342 35.4335 33.8374 35.4086C30.5455 35.0765 27.3834 34.0322 24.6052 32.3596C22.0204 30.8348 19.829 28.8004 18.1865 26.4008C16.3786 23.8098 15.2534 20.86 14.9023 17.7902C14.8756 17.5155 14.9107 17.2387 15.0055 16.9774C15.1003 16.7161 15.2527 16.4759 15.453 16.2723C15.6532 16.0686 15.897 15.9059 16.1687 15.7944C16.4404 15.683 16.7341 15.6254 17.0312 15.6251H20.2405C20.7597 15.6204 21.263 15.791 21.6566 16.1053C22.0503 16.4196 22.3074 16.8561 22.3801 17.3333C22.5155 18.2868 22.7667 19.223 23.1289 20.1241C23.2729 20.4795 23.304 20.8659 23.2187 21.2373C23.1334 21.6087 22.9351 21.9496 22.6475 22.2196L21.2889 23.4809C22.8118 25.9673 25.0293 28.026 27.7076 29.4398L29.0662 28.1785C29.3571 27.9115 29.7243 27.7274 30.1243 27.6482C30.5244 27.569 30.9405 27.5979 31.3234 27.7316C32.294 28.0678 33.3025 28.301 34.3295 28.4268C34.8492 28.4948 35.3238 28.7378 35.663 29.1096C36.0023 29.4813 36.1826 29.9558 36.1696 30.4429Z" stroke="white" stroke-width="2" stroke-linecap="round" stroke-linejoin="round"/>
</svg>

<?xml version="1.0" encoding="utf-8"?>
<!-- Generator: Adobe Illustrator 27.2.0, SVG Export Plug-In . SVG Version: 6.00 Build 0)  -->
<svg version="1.1" id="Layer_1" xmlns="http://www.w3.org/2000/svg" xmlns:xlink="http://www.w3.org/1999/xlink" x="0px" y="0px"
	 viewBox="0 0 50 50" style="enable-background:new 0 0 50 50;" xml:space="preserve">
<style type="text/css">
	.st0{fill:none;stroke:#D24D01;stroke-width:2;}
	.st1{fill:none;stroke:#FFFFFF;stroke-width:2;stroke-linecap:round;stroke-linejoin:round;}
</style>
<circle class="st0" cx="25" cy="25" r="24"/>
<path class="st1" d="M36.2,30.4v3c0,0.3-0.1,0.6-0.2,0.8c-0.1,0.3-0.3,0.5-0.5,0.7c-0.2,0.2-0.5,0.3-0.8,0.4
	c-0.3,0.1-0.6,0.1-0.9,0.1c-3.3-0.3-6.5-1.4-9.2-3c-2.6-1.5-4.8-3.6-6.4-6c-1.8-2.6-2.9-5.5-3.3-8.6c0-0.3,0-0.6,0.1-0.8
	c0.1-0.3,0.2-0.5,0.4-0.7c0.2-0.2,0.4-0.4,0.7-0.5c0.3-0.1,0.6-0.2,0.9-0.2h3.2c0.5,0,1,0.2,1.4,0.5c0.4,0.3,0.7,0.8,0.7,1.2
	c0.1,1,0.4,1.9,0.7,2.8c0.1,0.4,0.2,0.7,0.1,1.1c-0.1,0.4-0.3,0.7-0.6,1l-1.4,1.3c1.5,2.5,3.7,4.5,6.4,6l1.4-1.3
	c0.3-0.3,0.7-0.5,1.1-0.5c0.4-0.1,0.8-0.1,1.2,0.1c1,0.3,2,0.6,3,0.7c0.5,0.1,1,0.3,1.3,0.7C36,29.5,36.2,30,36.2,30.4z"/>
</svg>
